X:62
T:Valse  Mary (B. Loffet)
C:B. Loffet
M:3/4
L:1/8
K:C
Ac ed dc|A3 Bcd|ec g^f df|e3dB2|\
Ac ed dc|A3 Bcd|e2 dc de|B6:|
|:fe fa ge|c3 BA2|dc de ^fd|e2 ed B2|\
fe fa ge|c3 BAc|ee dc d^f|e6:|"coda"Ac ed dc|A6||
